dist/images/svg-icons/shopping-cart-full.svg

<?xml version="1.0" encoding="utf-8"?>
<!-- Generated by IcoMoon.io -->
<!DOCTYPE svg PUBLIC "-//W3C//DTD SVG 1.1//EN" "http://www.w3.org/Graphics/SVG/1.1/DTD/svg11.dtd">
<svg version="1.1" xmlns="http://www.w3.org/2000/svg" xmlns:xlink="http://www.w3.org/1999/xlink" width="17" height="17" viewBox="0 0 17 17">
<g>
</g>
	<path d="M2.75 12.5c-0.965 0-1.75 0.785-1.75 1.75s0.785 1.75 1.75 1.75 1.75-0.785 1.75-1.75-0.785-1.75-1.75-1.75zM2.75 15c-0.413 0-0.75-0.337-0.75-0.75s0.337-0.75 0.75-0.75 0.75 0.337 0.75 0.75-0.337 0.75-0.75 0.75zM11.25 12.5c-0.965 0-1.75 0.785-1.75 1.75s0.785 1.75 1.75 1.75 1.75-0.785 1.75-1.75-0.785-1.75-1.75-1.75zM11.25 15c-0.413 0-0.75-0.337-0.75-0.75s0.337-0.75 0.75-0.75 0.75 0.337 0.75 0.75-0.337 0.75-0.75 0.75zM13.37 2l-0.301 2h-13.143l1.117 8.036h11.914l1.043-7.5 0.231-1.536h2.769v-1h-3.63zM12.086 11.036h-10.172l-0.84-6.036h11.852l-0.84 6.036zM11 10h-8v-3.969h1v2.969h6v-2.97h1v3.97zM4 2.969h-1v-1.969h8v1.906h-1v-0.906h-6v0.969z" fill="#000000" />
</svg>

<svg xmlns="http://www.w3.org/2000/svg" width="17" height="17"><path d="M2.75 12.5c-.965 0-1.75.785-1.75 1.75S1.785 16 2.75 16s1.75-.785 1.75-1.75-.785-1.75-1.75-1.75zm0 2.5c-.413 0-.75-.337-.75-.75s.337-.75.75-.75.75.337.75.75-.337.75-.75.75zm8.5-2.5c-.965 0-1.75.785-1.75 1.75S10.285 16 11.25 16 13 15.215 13 14.25s-.785-1.75-1.75-1.75zm0 2.5c-.413 0-.75-.337-.75-.75s.337-.75.75-.75.75.337.75.75-.337.75-.75.75zm2.12-13l-.301 2H-.074l1.117 8.036h11.914L14 4.536 14.231 3H17V2h-3.63zm-1.284 9.036H1.914L1.074 5h11.852l-.84 6.036zM11 10H3V6.031h1V9h6V6.03h1V10zM4 2.969H3V1h8v1.906h-1V2H4v.969z"/></svg>
